X:1
T: Strathspey
C:James Stevenson
R:Strathspey
Q: 128
K:C
M:4/4
L:1/16
|:G4|eg3 g3e dg3 d3B|c3A e3d cB3 G4|A4 c3A Gc3 d3e|d3c B3c d3e f3d|
eg3 g3e dg3 d3B|((3c2B2A2) e3d cB3 G4|A3B c3A Gc3 d3e|f3d cB3 c4 c3B|
A3B c3A GE3 E3G|F3E D3F EG3 G4|A3G ((3F2G2A2) Gc3 d3e|d3c B3A G3G e3d|
c3B A3c BG3 G3E|D3E F3G EG3 c3B|A3B c3A Gc3 d3e|f3d cB3 c4:|
